X:1
T:Gordon, 11.11.11.11
T:Adoniram Judson Gordon, 1876
T:Gordon, 11.11.11.11
T:Public Domain
C:Adoniram Judson Gordon, 1876
Z:Public Domain
%%score ( 1 2 ) ( 3 4 )
L:1/8
M:4/4
K:F
V:1 treble 
V:2 treble 
V:3 bass 
V:4 bass 
V:1
 [CF]2 | [FA]4 [FB]2 [FB]2 | ([FA]3 [CG]) [CF]2 [FA]2 | [EG]4 [CE]2 [CE]2 | [CF]6 [CF]2 | %5
 [FA]4 [FB]2 [FB]2 | ([FA]3 [CG]) [CF]2 [FA]2 | [EG]4 [CE]2 [CE]2 | [CF]6 [FA]2 [Fc]4 [Fd]2 [Fc]2 | %9
 ([EB]2 [FA]2) [CG]2 C2 | (A2 c2) [DB]2 [DG]2 | (F4 E2) [CF]2 | [FA]4 [FB]2 [FB]2 | %13
 ([FA]3 [CG]) [CF]2 [FA]2 | (c2 B2) [EA]2 [CG]2 | [CF]6 |] %16
V:2
 x2 | x8 | x8 | x8 | x8 | x8 | x8 | x8 | x16 | x8 | C4 x4 | C6 x2 | x8 | x8 | F4 x4 | x6 |] %16
V:3
 [F,A,]2 | [F,C]4 [F,D]2 [F,D]2 | (C3 B,) [F,A,]2 [F,C]2 | [C,B,]4 [C,G,]2 [C,G,]2 | %4
 [F,A,]6 [F,A,]2 | [F,C]4 [F,D]2 [F,D]2 | (C3 B,) [F,A,]2 [F,C]2 | [C,B,]4 [C,G,]2 [C,G,]2 | %8
 [F,A,]6 [F,C]2 [A,C]4 B,2 [A,C]2 | (G,2 F,2) [E,C]2 [D,C]2 | (C2 A,2) [B,,G,]2 [B,,B,]2 | %11
 (A,4 G,2) [F,A,]2 | [F,C]4 [F,D]2 [F,D]2 | (C3 B,) [F,A,]2 [F,C]2 | (A,2 G,2) [C,C]2 [C,B,]2 | %15
 [F,A,]6 |] %16
V:4
 x2 | x8 | F,4 x4 | x8 | x8 | x8 | F,4 x4 | x8 | x16 | C4 x4 | F,4 x4 | C,6 x2 | x8 | F,4 x4 | %14
 C,4 x4 | x6 |] %16

